images/bunny-santa.svg

<svg width="355" height="386" viewBox="0 0 355 386" fill="none" xmlns="http://www.w3.org/2000/svg">
<path fill-rule="evenodd" clip-rule="evenodd" d="M61.8129 58.8608C56.7377 31.4061 77.5911 6.04175 105.238 6.04175C129.636 6.04175 149.414 26.0219 149.414 50.6686V105.687C155.517 105.252 161.718 105.028 167.998 105.028C174.032 105.028 179.992 105.234 185.862 105.636V50.6686C185.862 26.0219 205.641 6.04175 230.039 6.04175C257.686 6.04175 278.539 31.4061 273.464 58.8609L261.509 123.532C302.538 141.627 333.562 173.056 333.562 212.548V236.442C333.562 268.919 312.293 296.11 282.56 314.466C252.595 332.965 212.058 343.962 167.998 343.962C123.939 343.962 83.4012 332.965 53.4359 314.466C23.7027 296.11 2.43417 268.919 2.43417 236.442V212.548C2.43417 173.265 33.1395 141.957 73.8223 123.825L61.8129 58.8608ZM246.189 132.028L260.178 56.3545C263.701 37.2994 249.227 19.6951 230.039 19.6951C213.105 19.6951 199.378 33.5624 199.378 50.6686V120.683C194.941 120.108 190.433 119.653 185.862 119.323C180.003 118.899 174.042 118.682 167.998 118.682C161.707 118.682 155.505 118.918 149.414 119.376C144.844 119.72 140.335 120.189 135.899 120.777V50.6686C135.899 33.5624 122.172 19.6951 105.238 19.6951C86.0496 19.6951 71.5762 37.2994 75.0987 56.3544L89.1341 132.279C45.2573 148.744 15.9496 178.533 15.9496 212.548V236.442C15.9496 288.283 84.024 330.308 167.998 330.308C251.972 330.308 320.047 288.283 320.047 236.442V212.548C320.047 178.36 290.439 148.44 246.189 132.028Z" fill="#633001"/>
<path d="M320.047 236.442C320.047 288.283 251.972 330.308 167.998 330.308C84.024 330.308 15.9496 288.283 15.9496 236.442V212.548H320.047V236.442Z" fill="#FEDC90"/>
<path fill-rule="evenodd" clip-rule="evenodd" d="M75.0987 56.3544C71.5762 37.2993 86.0496 19.6951 105.238 19.6951C122.172 19.6951 135.899 33.5624 135.899 50.6686V120.777C146.247 119.404 156.986 118.682 167.998 118.682C178.755 118.682 189.252 119.371 199.378 120.683V50.6686C199.378 33.5624 213.105 19.6951 230.039 19.6951C249.227 19.6951 263.701 37.2994 260.178 56.3545L246.189 132.028C290.439 148.44 320.047 178.36 320.047 212.548C320.047 264.389 251.972 306.415 167.998 306.415C84.024 306.415 15.9496 264.389 15.9496 212.548C15.9496 178.533 45.2573 148.744 89.1341 132.279L75.0987 56.3544Z" fill="#D1884F"/>
<path d="M125.762 205.722C125.762 219.86 118.199 231.322 108.868 231.322C99.5377 231.322 91.9738 219.86 91.9738 205.722C91.9738 191.583 99.5377 180.122 108.868 180.122C118.199 180.122 125.762 191.583 125.762 205.722Z" fill="#633001"/>
<path d="M242.333 205.722C242.333 219.86 234.769 231.322 225.439 231.322C216.108 231.322 208.544 219.86 208.544 205.722C208.544 191.583 216.108 180.122 225.439 180.122C234.769 180.122 242.333 191.583 242.333 205.722Z" fill="#633001"/>
<path d="M296.5 85.0001C224.998 11.2118 27 57.366 27 132.564H283.177C283.177 132.564 289.873 225.5 332 225.5C338.072 212.967 368.002 158.788 296.5 85.0001Z" fill="#DA4040"/>
<mask id="mask0" mask-type="alpha" maskUnits="userSpaceOnUse" x="48" y="0" width="240" height="114">
<path d="M48 0H288V113.5C288 113.5 215.725 98.4139 167.5 98.5C119.656 98.5854 48 113.5 48 113.5V0Z" fill="#C4C4C4"/>
</mask>
<g mask="url(#mask0)">
<path fill-rule="evenodd" clip-rule="evenodd" d="M62.0682 58.8608C56.9929 31.4061 77.8463 6.04175 105.494 6.04175C129.891 6.04175 149.67 26.0219 149.67 50.6686V105.687C155.772 105.252 161.973 105.028 168.253 105.028C174.287 105.028 180.247 105.234 186.118 105.636V50.6686C186.118 26.0219 205.896 6.04175 230.294 6.04175C257.941 6.04175 278.794 31.4061 273.719 58.8609L261.764 123.532C302.793 141.627 333.817 173.056 333.817 212.548V236.442C333.817 268.919 312.549 296.11 282.815 314.466C252.85 332.965 212.313 343.962 168.253 343.962C124.194 343.962 83.6564 332.965 53.6912 314.466C23.9579 296.11 2.68942 268.919 2.68942 236.442V212.548C2.68942 173.265 33.3947 141.957 74.0775 123.825L62.0682 58.8608ZM246.444 132.028L260.433 56.3545C263.956 37.2994 249.482 19.6951 230.294 19.6951C213.36 19.6951 199.633 33.5624 199.633 50.6686V120.683C195.196 120.108 190.688 119.653 186.118 119.323C180.258 118.899 174.297 118.682 168.253 118.682C161.962 118.682 155.76 118.918 149.67 119.376C145.099 119.72 140.591 120.189 136.154 120.777V50.6686C136.154 33.5624 122.427 19.6951 105.494 19.6951C86.3048 19.6951 71.8314 37.2994 75.3539 56.3544L89.3893 132.279C45.5125 148.744 16.2048 178.533 16.2048 212.548V236.442C16.2048 288.283 84.2793 330.308 168.253 330.308C252.227 330.308 320.302 288.283 320.302 236.442V212.548C320.302 178.36 290.694 148.44 246.444 132.028Z" fill="#633001"/>
<path fill-rule="evenodd" clip-rule="evenodd" d="M75.3539 56.3544C71.8314 37.2993 86.3048 19.6951 105.494 19.6951C122.427 19.6951 136.154 33.5624 136.154 50.6686V120.777C146.502 119.404 157.241 118.682 168.253 118.682C179.011 118.682 189.507 119.371 199.633 120.683V50.6686C199.633 33.5624 213.36 19.6951 230.294 19.6951C249.482 19.6951 263.956 37.2994 260.433 56.3545L246.444 132.028C290.694 148.44 320.302 178.36 320.302 212.548C320.302 264.389 252.227 306.415 168.253 306.415C84.2793 306.415 16.2048 264.389 16.2048 212.548C16.2048 178.533 45.5125 148.744 89.3893 132.279L75.3539 56.3544Z" fill="#D1884F"/>
<path d="M73 118H150V83H67L73 118Z" fill="url(#paint0_linear)"/>
<path d="M261 118H184V83H267L261 118Z" fill="url(#paint1_linear)"/>
</g>
<path fill-rule="evenodd" clip-rule="evenodd" d="M245.38 160.834C190.545 151.221 134.455 151.221 79.6204 160.834L40.4533 167.7C29.5735 169.607 19.2076 162.333 17.3004 151.453C15.3932 140.574 22.6669 130.208 33.5467 128.3L72.7138 121.434C132.118 111.021 192.882 111.021 252.286 121.434L291.453 128.3C302.333 130.208 309.607 140.574 307.7 151.453C305.792 162.333 295.426 169.607 284.547 167.7L245.38 160.834Z" fill="white" stroke="#BDC2C4" stroke-width="10"/>
<circle cx="327" cy="234" r="23" fill="white" stroke="#BDC2C4" stroke-width="10"/>
<path d="M296.5 85.0001C224.998 11.2118 27 57.366 27 132.564H283.177C283.177 132.564 289.873 225.5 332 225.5C338.072 212.967 368.002 158.788 296.5 85.0001Z" fill="#DA4040"/>
<mask id="mask1" mask-type="alpha" maskUnits="userSpaceOnUse" x="48" y="0" width="240" height="114">
<path d="M48 0H288V113.5C288 113.5 215.725 98.4139 167.5 98.5C119.656 98.5854 48 113.5 48 113.5V0Z" fill="#C4C4C4"/>
</mask>
<g mask="url(#mask1)">
<path fill-rule="evenodd" clip-rule="evenodd" d="M62.0682 58.8608C56.9929 31.4061 77.8463 6.04175 105.494 6.04175C129.891 6.04175 149.67 26.0219 149.67 50.6686V105.687C155.772 105.252 161.973 105.028 168.253 105.028C174.287 105.028 180.247 105.234 186.118 105.636V50.6686C186.118 26.0219 205.896 6.04175 230.294 6.04175C257.941 6.04175 278.794 31.4061 273.719 58.8609L261.764 123.532C302.793 141.627 333.817 173.056 333.817 212.548V236.442C333.817 268.919 312.549 296.11 282.815 314.466C252.85 332.965 212.313 343.962 168.253 343.962C124.194 343.962 83.6564 332.965 53.6912 314.466C23.9579 296.11 2.68942 268.919 2.68942 236.442V212.548C2.68942 173.265 33.3947 141.957 74.0775 123.825L62.0682 58.8608ZM246.444 132.028L260.433 56.3545C263.956 37.2994 249.482 19.6951 230.294 19.6951C213.36 19.6951 199.633 33.5624 199.633 50.6686V120.683C195.196 120.108 190.688 119.653 186.118 119.323C180.258 118.899 174.297 118.682 168.253 118.682C161.962 118.682 155.76 118.918 149.67 119.376C145.099 119.72 140.591 120.189 136.154 120.777V50.6686C136.154 33.5624 122.427 19.6951 105.494 19.6951C86.3048 19.6951 71.8314 37.2994 75.3539 56.3544L89.3893 132.279C45.5125 148.744 16.2048 178.533 16.2048 212.548V236.442C16.2048 288.283 84.2793 330.308 168.253 330.308C252.227 330.308 320.302 288.283 320.302 236.442V212.548C320.302 178.36 290.694 148.44 246.444 132.028Z" fill="#633001"/>
<path fill-rule="evenodd" clip-rule="evenodd" d="M75.3539 56.3544C71.8314 37.2993 86.3048 19.6951 105.494 19.6951C122.427 19.6951 136.154 33.5624 136.154 50.6686V120.777C146.502 119.404 157.241 118.682 168.253 118.682C179.011 118.682 189.507 119.371 199.633 120.683V50.6686C199.633 33.5624 213.36 19.6951 230.294 19.6951C249.482 19.6951 263.956 37.2994 260.433 56.3545L246.444 132.028C290.694 148.44 320.302 178.36 320.302 212.548C320.302 264.389 252.227 306.415 168.253 306.415C84.2793 306.415 16.2048 264.389 16.2048 212.548C16.2048 178.533 45.5125 148.744 89.3893 132.279L75.3539 56.3544Z" fill="#D1884F"/>
<path d="M73 118H150V83H67L73 118Z" fill="url(#paint2_linear)"/>
<path d="M261 118H184V83H267L261 118Z" fill="url(#paint3_linear)"/>
</g>
<path fill-rule="evenodd" clip-rule="evenodd" d="M245.38 160.834C190.545 151.221 134.455 151.221 79.6204 160.834L40.4533 167.7C29.5735 169.607 19.2076 162.333 17.3004 151.453C15.3932 140.574 22.6669 130.208 33.5467 128.3L72.7138 121.434C132.118 111.021 192.882 111.021 252.286 121.434L291.453 128.3C302.333 130.208 309.607 140.574 307.7 151.453C305.792 162.333 295.426 169.607 284.547 167.7L245.38 160.834Z" fill="white" stroke="#BDC2C4" stroke-width="10"/>
<circle cx="327" cy="234" r="23" fill="white" stroke="#BDC2C4" stroke-width="10"/>
<mask id="path-22-inside-1" fill="white">
<path d="M246.382 290.142C246.382 335.185 228.236 386 168 386C107.764 386 89.6184 335.185 89.6184 290.142C89.6184 245.098 124.711 234.533 168 234.533C211.289 234.533 246.382 245.098 246.382 290.142Z"/>
</mask>
<path d="M246.382 290.142C246.382 335.185 228.236 386 168 386C107.764 386 89.6184 335.185 89.6184 290.142C89.6184 245.098 124.711 234.533 168 234.533C211.289 234.533 246.382 245.098 246.382 290.142Z" fill="white"/>
<path d="M238.382 290.142C238.382 311.799 233.986 334.018 223.097 350.564C212.518 366.638 195.44 378 168 378V394C200.796 394 222.909 379.954 236.462 359.36C249.704 339.239 254.382 313.528 254.382 290.142H238.382ZM168 378C140.56 378 123.482 366.638 112.903 350.564C102.014 334.018 97.6184 311.799 97.6184 290.142H81.6184C81.6184 313.528 86.2957 339.239 99.5379 359.36C113.091 379.954 135.204 394 168 394V378ZM97.6184 290.142C97.6184 279.923 99.6042 272.185 102.813 266.259C106.001 260.372 110.627 255.843 116.606 252.357C128.883 245.197 146.683 242.533 168 242.533V226.533C146.028 226.533 124.638 229.151 108.546 238.535C100.34 243.32 93.4879 249.878 88.7432 258.64C84.0192 267.364 81.6184 277.838 81.6184 290.142H97.6184ZM168 242.533C189.317 242.533 207.117 245.197 219.394 252.357C225.373 255.843 229.999 260.372 233.187 266.259C236.396 272.185 238.382 279.923 238.382 290.142H254.382C254.382 277.838 251.981 267.364 247.257 258.64C242.512 249.878 235.66 243.32 227.454 238.535C211.362 229.151 189.972 226.533 168 226.533V242.533Z" fill="#BDC2C4" mask="url(#path-22-inside-1)"/>
<path d="M86 252.842C86 236.754 123.389 229.577 142.084 228C157.663 228 160 233.915 160 244.562C160 255.208 86 272.953 86 252.842Z" fill="white" stroke="#BDC2C4" stroke-width="8"/>
<path d="M252 252.842C252 236.754 214.105 229.577 195.158 228C179.368 228 177 233.915 177 244.562C177 255.208 252 272.953 252 252.842Z" fill="white" stroke="#BDC2C4" stroke-width="8"/>
<defs>
<linearGradient id="paint0_linear" x1="108.5" y1="118" x2="108.5" y2="83" gradientUnits="userSpaceOnUse">
<stop stop-color="#633001"/>
<stop offset="1" stop-color="#633001" stop-opacity="0"/>
</linearGradient>
<linearGradient id="paint1_linear" x1="225.5" y1="118" x2="225.5" y2="83" gradientUnits="userSpaceOnUse">
<stop stop-color="#633001"/>
<stop offset="1" stop-color="#633001" stop-opacity="0"/>
</linearGradient>
<linearGradient id="paint2_linear" x1="108.5" y1="118" x2="108.5" y2="83" gradientUnits="userSpaceOnUse">
<stop stop-color="#633001"/>
<stop offset="1" stop-color="#633001" stop-opacity="0"/>
</linearGradient>
<linearGradient id="paint3_linear" x1="225.5" y1="118" x2="225.5" y2="83" gradientUnits="userSpaceOnUse">
<stop stop-color="#633001"/>
<stop offset="1" stop-color="#633001" stop-opacity="0"/>
</linearGradient>
</defs>
</svg>

<svg xmlns="http://www.w3.org/2000/svg" xmlns:v="https://vecta.io/nano" xmlns:xlink="http://www.w3.org/1999/xlink" width="355" height="386" fill="none"><style>.B{fill-rule:evenodd}.C{fill:#633001}.D{fill:#d1884f}.E{stroke:#bdc2c4}</style><path d="M61.813 58.861C56.738 31.406 77.591 6.042 105.238 6.042c24.398 0 44.176 19.98 44.176 44.627v55.018c6.103-.435 12.304-.659 18.584-.659a261.51 261.51 0 0 1 17.864.608V50.669c0-24.647 19.779-44.627 44.177-44.627 27.647 0 48.5 25.364 43.425 52.819l-11.955 64.671c41.029 18.095 72.053 49.524 72.053 89.016v23.894c0 32.477-21.269 59.668-51.002 78.024-29.965 18.499-70.502 29.496-114.562 29.496s-84.597-10.997-114.562-29.496C23.703 296.11 2.434 268.919 2.434 236.442v-23.894c0-39.283 30.705-70.591 71.388-88.723L61.813 58.861zm184.376 73.167l13.989-75.673c3.523-19.055-10.951-36.659-30.139-36.659-16.934 0-30.661 13.867-30.661 30.973v70.014a239.21 239.21 0 0 0-13.516-1.36 247.56 247.56 0 0 0-17.864-.641c-6.291 0-12.493.236-18.584.694-4.57.344-9.079.813-13.515 1.401V50.669c0-17.106-13.727-30.973-30.661-30.973-19.188 0-33.662 17.604-30.139 36.659l14.035 75.925c-43.877 16.465-73.184 46.254-73.184 80.269v23.894c0 51.841 68.074 93.866 152.048 93.866s152.049-42.025 152.049-93.866v-23.894c0-34.188-29.608-64.108-73.858-80.52z" class="B C"/><path fill="#fedc90" d="M320.047 236.442c0 51.841-68.075 93.866-152.049 93.866S15.95 288.283 15.95 236.442v-23.894h304.097v23.894z"/><path d="M75.099 56.354c-3.522-19.055 10.951-36.659 30.139-36.659 16.934 0 30.661 13.867 30.661 30.973v70.108c10.348-1.373 21.087-2.095 32.099-2.095 10.757 0 21.254.689 31.38 2.001V50.669c0-17.106 13.727-30.973 30.661-30.973 19.188 0 33.662 17.604 30.139 36.659l-13.989 75.673c44.25 16.412 73.858 46.332 73.858 80.52 0 51.841-68.075 93.867-152.049 93.867S15.95 264.389 15.95 212.548c0-34.015 29.308-63.804 73.185-80.269L75.099 56.354z" class="B D"/><path d="M125.762 205.722c0 14.138-7.563 25.6-16.894 25.6s-16.894-11.462-16.894-25.6 7.564-25.6 16.894-25.6 16.894 11.461 16.894 25.6zm116.571 0c0 14.138-7.564 25.6-16.894 25.6s-16.895-11.462-16.895-25.6 7.564-25.6 16.895-25.6 16.894 11.461 16.894 25.6z" class="C"/><use fill="#da4040" xlink:href="#F"/><mask id="A" width="240" height="114" x="48" y="0" mask-type="alpha" maskUnits="userSpaceOnUse"><path fill="#c4c4c4" d="M48 0h240v113.5s-72.275-15.086-120.5-15c-47.844.085-119.5 15-119.5 15V0z"/></mask><g mask="url(#A)"><use class="B C" xlink:href="#G"/><use class="B D" xlink:href="#H"/><path fill="url(#D)" d="M73 118h77V83H67l6 35z"/><path fill="url(#E)" d="M261 118h-77V83h83l-6 35z"/></g><g fill="#fff" stroke-width="10" class="E"><use class="B" xlink:href="#I"/><circle cx="327" cy="234" r="23"/></g><use fill="#da4040" xlink:href="#F"/><mask id="B" width="240" height="114" x="48" y="0" mask-type="alpha" maskUnits="userSpaceOnUse"><path fill="#c4c4c4" d="M48 0h240v113.5s-72.275-15.086-120.5-15c-47.844.085-119.5 15-119.5 15V0z"/></mask><g mask="url(#B)"><use class="B C" xlink:href="#G"/><use class="B D" xlink:href="#H"/><path fill="url(#D)" d="M73 118h77V83H67l6 35z"/><path fill="url(#E)" d="M261 118h-77V83h83l-6 35z"/></g><g fill="#fff" stroke-width="10" class="E"><use class="B" xlink:href="#I"/><circle cx="327" cy="234" r="23"/></g><mask id="C" fill="#fff"><use xlink:href="#J"/></mask><use fill="#fff" xlink:href="#J"/><path fill="#bdc2c4" d="M238.382 290.142c0 21.657-4.396 43.876-15.285 60.422C212.518 366.638 195.44 378 168 378v16c32.796 0 54.909-14.046 68.462-34.64 13.242-20.121 17.92-45.832 17.92-69.218h-16zM168 378c-27.44 0-44.518-11.362-55.097-27.436-10.889-16.546-15.285-38.765-15.285-60.422h-16c0 23.386 4.677 49.097 17.92 69.218C113.091 379.954 135.204 394 168 394v-16zm-70.382-87.858c0-10.219 1.986-17.957 5.195-23.883 3.188-5.887 7.814-10.416 13.793-13.902 12.277-7.16 30.077-9.824 51.394-9.824v-16c-21.972 0-43.362 2.618-59.454 12.002-8.206 4.785-15.058 11.343-19.803 20.105-4.724 8.724-7.125 19.198-7.125 31.502h16zM168 242.533c21.317 0 39.117 2.664 51.394 9.824 5.979 3.486 10.605 8.015 13.793 13.902 3.209 5.926 5.195 13.664 5.195 23.883h16c0-12.304-2.401-22.778-7.125-31.502-4.745-8.762-11.597-15.32-19.803-20.105-16.092-9.384-37.482-12.002-59.454-12.002v16z" mask="url(#C)"/><path fill="#fff" stroke-width="8" d="M86 252.842c0-16.088 37.389-23.265 56.084-24.842 15.579 0 17.916 5.915 17.916 16.562s-74 28.391-74 8.28zm166 0c0-16.088-37.895-23.265-56.842-24.842-15.79 0-18.158 5.915-18.158 16.562s75 28.391 75 8.28z" class="E"/><defs><linearGradient id="D" x1="108.5" x2="108.5" y1="118" y2="83" gradientUnits="userSpaceOnUse"><stop stop-color="#633001"/><stop offset="1" stop-color="#633001" stop-opacity="0"/></linearGradient><linearGradient id="E" x1="225.5" x2="225.5" y1="118" y2="83" gradientUnits="userSpaceOnUse"><stop stop-color="#633001"/><stop offset="1" stop-color="#633001" stop-opacity="0"/></linearGradient><path id="F" d="M296.5 85C224.998 11.212 27 57.366 27 132.564h256.177S289.873 225.5 332 225.5c6.072-12.533 36.002-66.712-35.5-140.5z"/><path id="G" d="M62.068 58.861C56.993 31.406 77.846 6.042 105.494 6.042c24.397 0 44.176 19.98 44.176 44.627v55.018a261.4 261.4 0 0 1 18.583-.659 261.56 261.56 0 0 1 17.865.608V50.669c0-24.647 19.778-44.627 44.176-44.627 27.647 0 48.5 25.364 43.425 52.819l-11.955 64.671c41.029 18.095 72.053 49.524 72.053 89.016v23.894c0 32.477-21.268 59.668-51.002 78.024-29.965 18.499-70.502 29.496-114.562 29.496s-84.597-10.997-114.562-29.496C23.958 296.11 2.689 268.919 2.689 236.442v-23.894c0-39.283 30.705-70.591 71.388-88.723L62.068 58.861zm184.376 73.167l13.989-75.673c3.523-19.055-10.951-36.659-30.139-36.659-16.934 0-30.661 13.867-30.661 30.973v70.014c-4.437-.575-8.945-1.03-13.515-1.36a247.61 247.61 0 0 0-17.865-.641 247.87 247.87 0 0 0-18.583.694 239.98 239.98 0 0 0-13.516 1.401V50.669c0-17.106-13.727-30.973-30.66-30.973-19.189 0-33.663 17.604-30.14 36.659l14.035 75.925c-43.877 16.465-73.185 46.254-73.185 80.269v23.894c0 51.841 68.075 93.866 152.048 93.866s152.049-42.025 152.049-93.866v-23.894c0-34.188-29.608-64.108-73.858-80.52z"/><path id="H" d="M75.354 56.354c-3.522-19.055 10.951-36.659 30.14-36.659 16.933 0 30.66 13.867 30.66 30.973v70.108c10.348-1.373 21.087-2.095 32.099-2.095 10.758 0 21.254.689 31.38 2.001V50.669c0-17.106 13.727-30.973 30.661-30.973 19.188 0 33.662 17.604 30.139 36.659l-13.989 75.673c44.25 16.412 73.858 46.332 73.858 80.52 0 51.841-68.075 93.867-152.049 93.867S16.205 264.389 16.205 212.548c0-34.015 29.308-63.804 73.185-80.269L75.354 56.354z"/><path id="I" d="M245.38 160.834a479.98 479.98 0 0 0-165.76 0L40.453 167.7c-10.88 1.907-21.246-5.367-23.153-16.247s5.366-21.245 16.246-23.153l39.167-6.866c59.404-10.413 120.168-10.413 179.572 0l39.167 6.866c10.88 1.908 18.154 12.274 16.247 23.153s-12.274 18.154-23.153 16.247l-39.167-6.866z"/><path id="J" d="M246.382 290.142C246.382 335.185 228.236 386 168 386s-78.382-50.815-78.382-95.858 35.093-55.609 78.382-55.609 78.382 10.565 78.382 55.609z"/></defs></svg>
